src/emblems/32/emblem-default.svg

<?xml version="1.0" encoding="UTF-8" standalone="no"?>
<svg
   xmlns:dc="http://purl.org/dc/elements/1.1/"
   xmlns:cc="http://creativecommons.org/ns#"
   xmlns:rdf="http://www.w3.org/1999/02/22-rdf-syntax-ns#"
   xmlns:svg="http://www.w3.org/2000/svg"
   xmlns="http://www.w3.org/2000/svg"
   xmlns:sodipodi="http://sodipodi.sourceforge.net/DTD/sodipodi-0.dtd"
   xmlns:inkscape="http://www.inkscape.org/namespaces/inkscape"
   version="1.1"
   viewBox="0 0 32 32"
   id="svg8"
   sodipodi:docname="emblem-default.svg"
   inkscape:version="0.92.5 (2060ec1f9f, 2020-04-08)">
  <metadata
     id="metadata14">
    <rdf:RDF>
      <cc:Work
         rdf:about="">
        <dc:format>image/svg+xml</dc:format>
        <dc:type
           rdf:resource="http://purl.org/dc/dcmitype/StillImage" />
      </cc:Work>
    </rdf:RDF>
  </metadata>
  <defs
     id="defs12" />
  <sodipodi:namedview
     pagecolor="#ffffff"
     bordercolor="#666666"
     borderopacity="1"
     objecttolerance="10"
     gridtolerance="10"
     guidetolerance="10"
     inkscape:pageopacity="0"
     inkscape:pageshadow="2"
     inkscape:window-width="1920"
     inkscape:window-height="1015"
     id="namedview10"
     showgrid="true"
     inkscape:zoom="18.649941"
     inkscape:cx="10.970342"
     inkscape:cy="17.123896"
     inkscape:window-x="0"
     inkscape:window-y="0"
     inkscape:window-maximized="1"
     inkscape:current-layer="svg8"
     inkscape:document-rotation="0">
    <inkscape:grid
       type="xygrid"
       id="grid839" />
  </sodipodi:namedview>
  <rect
     x="3.5"
     y="3.5"
     width="25"
     height="25"
     rx="2"
     ry="2"
     color="#000000"
     fill="#8bbe43"
     overflow="visible"
     id="rect2"
     style="opacity:1;fill:#9bdb4d;fill-opacity:1;stroke-width:0.925926" />
  <path
     style="color:#000000;font-style:normal;font-variant:normal;font-weight:normal;font-stretch:normal;font-size:medium;line-height:normal;font-family:sans-serif;font-variant-ligatures:normal;font-variant-position:normal;font-variant-caps:normal;font-variant-numeric:normal;font-variant-alternates:normal;font-variant-east-asian:normal;font-feature-settings:normal;font-variation-settings:normal;text-indent:0;text-align:start;text-decoration:none;text-decoration-line:none;text-decoration-style:solid;text-decoration-color:#000000;letter-spacing:normal;word-spacing:normal;text-transform:none;writing-mode:lr-tb;direction:ltr;text-orientation:mixed;dominant-baseline:auto;baseline-shift:baseline;text-anchor:start;white-space:normal;shape-padding:0;shape-margin:0;inline-size:0;clip-rule:nonzero;display:inline;overflow:visible;visibility:visible;opacity:0.35;isolation:auto;mix-blend-mode:normal;color-interpolation:sRGB;color-interpolation-filters:linearRGB;solid-color:#000000;solid-opacity:1;vector-effect:none;fill:#000000;fill-opacity:1;fill-rule:nonzero;stroke:none;stroke-width:0.928571;stroke-linecap:round;stroke-linejoin:round;stroke-miterlimit:4;stroke-dasharray:none;stroke-dashoffset:0;stroke-opacity:1;color-rendering:auto;image-rendering:auto;shape-rendering:auto;text-rendering:auto;enable-background:accumulate;stop-color:#000000;stop-opacity:1"
     d="M 5.4707031,3 C 4.110354,3 3,4.110354 3,5.4707031 V 26.529297 C 3,27.889646 4.1103542,29 5.4707031,29 H 26.529297 C 27.889646,29 29,27.889646 29,26.529297 V 5.4707031 C 29,4.1103542 27.889646,3 26.529297,3 Z m 0,0.9277344 H 26.529297 c 0.861983,0 1.542969,0.6809861 1.542969,1.5429687 V 26.529297 c 0,0.861983 -0.680986,1.542969 -1.542969,1.542969 H 5.4707031 c -0.8619826,0 -1.5429687,-0.680986 -1.5429687,-1.542969 V 5.4707031 c 0,-0.8619825 0.6809862,-1.5429687 1.5429687,-1.5429687 z"
     id="path836" />
  <path
     inkscape:connector-curvature="0"
     style="color:#000000;display:inline;overflow:visible;visibility:visible;opacity:0.2;fill:#ffffff;fill-opacity:0.96610173;fill-rule:nonzero;stroke:none;stroke-width:1.26485479;marker:none;enable-background:accumulate"
     id="path2922-6-6-0-9-4-2-3"
     d="M 21.97987,8.93648 25,11.654615 14.852335,25.064 7,18.29891 l 2.59731,-3.442965 4.5906,3.98658 z" />
  <path
     inkscape:connector-curvature="0"
     style="color:#000000;display:inline;overflow:visible;visibility:visible;opacity:1;fill:#206b00;fill-opacity:1;fill-rule:nonzero;stroke:none;stroke-width:1.26485479;marker:none;enable-background:accumulate"
     id="path2922-6-6-0-9-4-2"
     d="M 21.97987,7.93624 25,10.654375 14.852335,24.06376 7,17.29867 l 2.59731,-3.442965 4.5906,3.98658 z" />
</svg>

<?xml version="1.0" encoding="UTF-8" standalone="no"?>
<svg
   xmlns:dc="http://purl.org/dc/elements/1.1/"
   xmlns:cc="http://creativecommons.org/ns#"
   xmlns:rdf="http://www.w3.org/1999/02/22-rdf-syntax-ns#"
   xmlns:svg="http://www.w3.org/2000/svg"
   xmlns="http://www.w3.org/2000/svg"
   xmlns:sodipodi="http://sodipodi.sourceforge.net/DTD/sodipodi-0.dtd"
   xmlns:inkscape="http://www.inkscape.org/namespaces/inkscape"
   version="1.1"
   viewBox="0 0 32 32"
   id="svg8"
   sodipodi:docname="emblem-default.svg"
   inkscape:version="0.92.5 (2060ec1f9f, 2020-04-08)">
  <metadata
     id="metadata14">
    <rdf:RDF>
      <cc:Work
         rdf:about="">
        <dc:format>image/svg+xml</dc:format>
        <dc:type
           rdf:resource="http://purl.org/dc/dcmitype/StillImage" />
      </cc:Work>
    </rdf:RDF>
  </metadata>
  <defs
     id="defs12" />
  <sodipodi:namedview
     pagecolor="#ffffff"
     bordercolor="#666666"
     borderopacity="1"
     objecttolerance="10"
     gridtolerance="10"
     guidetolerance="10"
     inkscape:pageopacity="0"
     inkscape:pageshadow="2"
     inkscape:window-width="1920"
     inkscape:window-height="1015"
     id="namedview10"
     showgrid="true"
     inkscape:zoom="18.649941"
     inkscape:cx="-0.63203287"
     inkscape:cy="16.402598"
     inkscape:window-x="0"
     inkscape:window-y="0"
     inkscape:window-maximized="1"
     inkscape:current-layer="svg8"
     inkscape:document-rotation="0">
    <inkscape:grid
       type="xygrid"
       id="grid839" />
  </sodipodi:namedview>
  <rect
     x="3.5"
     y="3.5"
     width="25"
     height="25"
     rx="2"
     ry="2"
     color="#000000"
     fill="#8bbe43"
     overflow="visible"
     id="rect2"
     style="opacity:1;fill:#9bdb4d;fill-opacity:1;stroke-width:0.925926" />
  <path
     inkscape:connector-curvature="0"
     style="color:#000000;display:inline;overflow:visible;visibility:visible;opacity:0.2;fill:#ffffff;fill-opacity:1;fill-rule:nonzero;stroke:none;stroke-width:1.26485479;marker:none;enable-background:accumulate"
     id="path2922-6-6-0-9-4-2-3"
     d="M 21.97987,8.93648 25,11.654615 14.852335,25.064 7,18.29891 l 2.59731,-3.442965 4.5906,3.98658 z" />
  <path
     inkscape:connector-curvature="0"
     style="color:#000000;display:inline;overflow:visible;visibility:visible;opacity:1;fill:#206b00;fill-opacity:1;fill-rule:nonzero;stroke:none;stroke-width:1.26485479;marker:none;enable-background:accumulate"
     id="path2922-6-6-0-9-4-2"
     d="M 21.97987,7.93624 25,10.654375 14.852335,24.06376 7,17.29867 l 2.59731,-3.442965 4.5906,3.98658 z" />
  <path
     style="color:#000000;font-style:normal;font-variant:normal;font-weight:normal;font-stretch:normal;font-size:medium;line-height:normal;font-family:sans-serif;font-variant-ligatures:normal;font-variant-position:normal;font-variant-caps:normal;font-variant-numeric:normal;font-variant-alternates:normal;font-feature-settings:normal;text-indent:0;text-align:start;text-decoration:none;text-decoration-line:none;text-decoration-style:solid;text-decoration-color:#000000;letter-spacing:normal;word-spacing:normal;text-transform:none;writing-mode:lr-tb;direction:ltr;text-orientation:mixed;dominant-baseline:auto;baseline-shift:baseline;text-anchor:start;white-space:normal;shape-padding:0;clip-rule:nonzero;display:inline;overflow:visible;visibility:visible;opacity:0.35;isolation:auto;mix-blend-mode:normal;color-interpolation:sRGB;color-interpolation-filters:linearRGB;solid-color:#000000;solid-opacity:1;vector-effect:none;fill:#000000;fill-opacity:1;fill-rule:nonzero;stroke:none;stroke-width:1;stroke-linecap:butt;stroke-linejoin:miter;stroke-miterlimit:4;stroke-dasharray:none;stroke-dashoffset:0;stroke-opacity:1;color-rendering:auto;image-rendering:auto;shape-rendering:auto;text-rendering:auto;enable-background:accumulate"
     d="M 5.5,3 C 4.123649,3 3,4.1236486 3,5.5 v 21 C 3,27.876351 4.123649,29 5.5,29 h 21 C 27.876351,29 29,27.876351 29,26.5 V 5.5 C 29,4.1236486 27.876351,3 26.5,3 Z m 0,1 h 21 C 27.339649,4 28,4.6603514 28,5.5 v 21 C 28,27.339649 27.339649,28 26.5,28 H 5.5 C 4.660351,28 4,27.339649 4,26.5 V 5.5 C 4,4.6603514 4.660351,4 5.5,4 Z"
     id="rect2-6"
     inkscape:connector-curvature="0" />
</svg>
